echobase/src/components/home/icons/mushroomCapsBack.svg

<svg width="100%" height="100%" viewBox="0 0 300 100" version="1.1" xmlns="http://www.w3.org/2000/svg" xmlns:xlink="http://www.w3.org/1999/xlink" xml:space="preserve" xmlns:serif="http://www.serif.com/" style="fill-rule:evenodd;clip-rule:evenodd;stroke-linejoin:round;stroke-miterlimit:1.41421;">
<path id="Layer0_0_FILL" d="M292,18.45l-2.95,0l0,-4.4l-129.688,0l-5.855,4.4l119.343,0l0,71.4l13.25,0l2.95,-2.95l0,-12.5l2.95,-2.95l0,-53Z" style="fill-rule:nonzero;"/>
</svg>

<svg xmlns="http://www.w3.org/2000/svg" version="1.1" xmlns:xlink="http://www.w3.org/1999/xlink" preserveAspectRatio="none" x="0px" y="0px" width="300px" height="100px" viewBox="0 0 300 100">
<defs>
<g id="Layer0_0_FILL">
<path fill="#000000" stroke="none" d="
M 292 18.45
L 289.05 18.45 289.05 14.05 38 14.05 33.6 18.45 272.85 18.45 272.85 89.85 286.1 89.85 289.05 86.9 289.05 74.4 292 71.45 292 18.45 Z"/>
</g>
</defs>

<g id="Layer_2">
<g transform="matrix( 1, 0, 0, 1, 0,0) ">
<use xlink:href="#Layer0_0_FILL"/>
</g>
</g>
</svg>
